other/nevertoomanybooks.svg

<?xml version="1.0" encoding="UTF-8" standalone="no"?>
<svg
   version="1.1"
   viewBox="0 0 48 48"
   xml:space="preserve"
   id="svg10"
   xmlns="http://www.w3.org/2000/svg"
   xmlns:svg="http://www.w3.org/2000/svg"><defs
     id="defs6"><style
       id="style2">.a{fill:none;stroke:#fff;stroke-linecap:round;stroke-linejoin:round;}</style><style
       id="style4" /></defs><path
     d="m 25.063581,38.286853 -0.05372,-24.947074 h 3.118118"
     style="fill:none;stroke:#ffffff;stroke-width:0.999998;stroke-linecap:round;stroke-linejoin:round;stroke-dashoffset:0.5"
     id="path1-6" /><path
     style="fill:none;stroke:#ffffff;stroke-width:0.999998;stroke-linecap:round;stroke-linejoin:round;stroke-dashoffset:0.5"
     d="M 11.566003,34.370598 6.8162432,34.336337 5.5208241,38.222597 42.44026,38.33051 40.659063,34.444245 28.623092,34.405881"
     id="path1" /><path
     style="fill:none;stroke:#ffffff;stroke-width:0.999998;stroke-linecap:round;stroke-linejoin:round;stroke-dashoffset:0.5"
     d="M 28.181698,38.286853 28.127914,13.339779"
     id="path2" /><path
     style="fill:none;stroke:#ffffff;stroke-width:0.999998;stroke-linecap:round;stroke-linejoin:round;stroke-dashoffset:0.5"
     d="M 25.016074,16.254473 H 17.195902"
     id="path3" /><path
     style="fill:none;stroke:#ffffff;stroke-width:0.999998;stroke-linecap:round;stroke-linejoin:round;stroke-dashoffset:0.5"
     d="M 11.674484,38.240581 V 7.9961747 h 5.521415 V 38.255101"
     id="path4" /><path
     style="fill:none;stroke:#ffffff;stroke-width:0.999998;stroke-linecap:round;stroke-linejoin:round;stroke-dashoffset:0.5"
     d="m 11.674484,11.882428 5.521415,0.05388"
     id="path5" /><path
     style="fill:none;stroke:#ffffff;stroke-width:0.999998;stroke-linecap:round;stroke-linejoin:round;stroke-dashoffset:0.5"
     d="m 11.566003,34.139625 h 5.629896"
     id="path6" /><path
     style="fill:none;stroke:#ffffff;stroke-width:0.999998;stroke-linecap:round;stroke-linejoin:round;stroke-dashoffset:0.5"
     d="m 5.5208241,38.222592 v 1.781224 H 42.479175 l -0.05388,-1.67327"
     id="path7" /><path
     style="fill:none;stroke:#ffffff;stroke-width:0.999998;stroke-linecap:round;stroke-linejoin:round;stroke-dashoffset:0.5"
     d="m 18.773844,18.094228 v 10.986078 h 4.658001 V 18.094228 Z"
     id="path9" /><path
     style="fill:none;stroke:#ffffff;stroke-width:0.999993;stroke-linecap:round;stroke-linejoin:round;stroke-dashoffset:0.5"
     d="m 21.214427,31.149111 0.851637,1.805747 1.728895,0.0833 -1.280658,1.440745 0.458755,1.854589 -1.758629,-0.86848 -1.530391,0.864447 0.256129,-1.850556 -1.485567,-1.440745 1.869769,-0.0833 z"
     id="path10" /></svg>

<?xml version="1.0" encoding="UTF-8"?>
<svg version="1.1" viewBox="0 0 48 48" xml:space="preserve" xmlns="http://www.w3.org/2000/svg"><defs><style>.a{fill:none;stroke:#fff;stroke-linecap:round;stroke-linejoin:round;}</style><style/></defs><g fill="none" stroke="#fff" stroke-dashoffset=".5" stroke-linecap="round" stroke-linejoin="round"><path d="m25.064 38.287-0.05372-24.947h3.1181"/><path d="m11.566 34.371-4.7498-0.034261-1.2954 3.8863 36.919 0.10791-1.7812-3.8863-12.036-0.038364"/><path d="m28.182 38.287-0.053784-24.947"/><path d="m25.016 16.254h-7.8202"/><path d="m11.674 38.241v-30.244h5.5214v30.259"/><path d="m11.674 11.882 5.5214 0.05388"/><path d="m11.566 34.14h5.6299"/><path d="m5.5208 38.223v1.7812h36.958l-0.05388-1.6733"/><path d="m18.774 18.094v10.986h4.658v-10.986z"/><path d="m21.214 31.149 0.85164 1.8057 1.7289 0.0833-1.2807 1.4407 0.45876 1.8546-1.7586-0.86848-1.5304 0.86445 0.25613-1.8506-1.4856-1.4407 1.8698-0.0833z"/></g></svg>
